exercises/zero-value.svg

<svg width="160" height="160" fill="none" xmlns="http://www.w3.org/2000/svg">
  <path d="M80.0627 49.3284c-8.637 0-14.218 12.1615-14.218 30.983 0 18.66 5.448 30.2516 14.218 30.2516 12.371 0 14.218-19.4121 14.218-30.9831 0-13.801-2.467-30.2515-14.218-30.2515z" fill="#C7F0FF"/>
  <path d="M132.998 27.0032c-29.269-29.2695-76.7253-29.2695-105.9948 0-29.2695 29.2695-29.2695 76.7258 0 105.9948 29.2695 29.27 76.7258 29.27 105.9948 0 29.27-29.269 29.27-76.7253 0-105.9948zM79.4472 122.942c-17.43 0-28.4115-16.375-28.6595-42.7338 0-13.228 2.858-24.222 8.265-31.813 5.334-7.489 12.855-11.447 21.7495-11.447 17.868 0 28.5358 15.7545 28.5358 42.144.001 27.8678-10.8943 43.8498-29.8908 43.8498z" fill="#C7F0FF"/>
  <path d="M80.8028 36.948c-8.8945 0-16.4155 3.9585-21.7495 11.447-5.4075 7.5905-8.265 18.5845-8.265 31.813.248 26.359 11.2295 42.734 28.6595 42.734 18.9965 0 29.8912-15.982 29.8912-43.85 0-26.389-10.6682-42.144-28.5362-42.144zm-.7395 73.614c-8.77 0-14.218-11.591-14.218-30.251 0-18.8215 5.5805-30.983 14.218-30.983 11.751 0 14.218 16.451 14.218 30.2515 0 11.571-1.847 30.9825-14.218 30.9825z" fill="url(#paint0_linear)"/>
  <defs>
    <linearGradient id="paint0_linear" x1="80.0638" y1="36.948" x2="80.0638" y2="122.942" gradientUnits="userSpaceOnUse">
      <stop stop-color="#20F"/>
      <stop offset="1" stop-color="#9E00FF"/>
    </linearGradient>
  </defs>
</svg>

<svg width="160" height="160" viewBox="0 0 160 160" fill="none" xmlns="http://www.w3.org/2000/svg">
<path d="M80.0627 49.3286C71.4257 49.3286 65.8447 61.4901 65.8447 80.3116C65.8447 98.9716 71.2927 110.563 80.0627 110.563C92.4337 110.563 94.2807 91.1511 94.2807 79.5801C94.2807 65.7791 91.8137 49.3286 80.0627 49.3286Z" fill="#C7F0FF"/>
<path d="M132.998 27.0034C103.729 -2.26611 56.2729 -2.26611 27.0034 27.0034C-2.26611 56.2729 -2.26611 103.729 27.0034 132.998C56.2729 162.268 103.729 162.268 132.998 132.998C162.268 103.729 162.268 56.2729 132.998 27.0034ZM79.4474 122.942C62.0174 122.942 51.0359 106.567 50.7879 80.2084C50.7879 66.9804 53.6459 55.9864 59.0529 48.3954C64.3869 40.9064 71.9079 36.9484 80.8024 36.9484C98.6704 36.9484 109.338 52.7029 109.338 79.0924C109.339 106.96 98.4439 122.942 79.4474 122.942Z" fill="#C7F0FF"/>
<path d="M80.8031 36.9482C71.9086 36.9482 64.3876 40.9067 59.0536 48.3952C53.6461 55.9857 50.7886 66.9797 50.7886 80.2082C51.0366 106.567 62.0181 122.942 79.4481 122.942C98.4446 122.942 109.34 106.96 109.34 79.0922C109.339 52.7032 98.6711 36.9482 80.8031 36.9482ZM80.0636 110.563C71.2936 110.563 65.8456 98.9712 65.8456 80.3112C65.8456 61.4897 71.4261 49.3282 80.0636 49.3282C91.8146 49.3282 94.2816 65.7792 94.2816 79.5797C94.2816 91.1507 92.4346 110.563 80.0636 110.563Z" fill="url(#paint0_linear)"/>
<defs>
<linearGradient id="paint0_linear" x1="80.0641" y1="36.9482" x2="80.0641" y2="122.942" gradientUnits="userSpaceOnUse">
<stop stop-color="#2200FF"/>
<stop offset="1" stop-color="#9E00FF"/>
</linearGradient>
</defs>
</svg>
